!!!SOCIAL_FUNCTION:	war songs
!!!PDT:	1939
!!!OTL: No_101_"You_Cannot_Defeat_Us".krn
!!!LANG: Non-Tone
!!!LING_GROUP: Wakashan
!!!REG: Pacific Northwest
**kern
*staff1
=1-
*clefF4
*k[f#c#g#]
*M2/4
4r
8r
8B\
=2
4.B\
8B\
=3
16B\LK
[8.A\J
8.A\L]
16A\Jk
=4
4..A\
16A\
=5
[2A\
=6
4A\]
8r
8A\
=7!|:
4.A\
8A\
=8
16A\LK
[8.F#\J
8.F#\L]
16E\Jk
=9
4F#\
8r
8E\
=10||
*M3/4
8F#\L
8A\J
8B\L
16A\L
16A\JJ
12A\L
24A\K
[8F#\J
=11||
*M2/4
4.F#\]
8F#\
=12
4.F#\
8E\
=13||
*M3/4
2F#\
4r
=14
8F#\L
16F#\L
16F#\JJ
8F#\L
[8F#\J
8F#\L]
8F#\J
=15||
*M2/4
4.F#\
8F#\
=16||
*M3/4
4F#\
4A\
8r
8A\
=17||
*M2/4
4.B\
8B\
=18
16B\LK
[8.A\J
8.A\L]
16A\Jk
=19
4.A\
8F#\
=20
4.A\
8A\
=21
[2A\
=22
4A\]
8r
8A\
=23:|!
2A\
==
*-
